instagram.f7a7d30d.svg

<svg xmlns="http://www.w3.org/2000/svg" width="25" height="24" viewBox="0 0 25 24" fill="none">
  <g clip-path="url(#clip0_320_223)">
    <path d="M17.5908 0H6.58397C3.0017 0 0.0874023 2.9143 0.0874023 6.49657V17.5036C0.0874023 21.0857 3.0017 24 6.58397 24H17.591C21.1731 24 24.0874 21.0857 24.0874 17.5036V6.49657C24.0874 2.9143 21.1731 0 17.5908 0V0ZM12.0874 18.5623C8.46886 18.5623 5.52507 15.6185 5.52507 12C5.52507 8.38145 8.46886 5.43767 12.0874 5.43767C15.7059 5.43767 18.6497 8.38145 18.6497 12C18.6497 15.6185 15.7059 18.5623 12.0874 18.5623ZM18.8066 6.98528C17.7373 6.98528 16.8675 6.11553 16.8675 5.04619C16.8675 3.97686 17.7373 3.10693 18.8066 3.10693C19.8759 3.10693 20.7459 3.97686 20.7459 5.04619C20.7459 6.11553 19.8759 6.98528 18.8066 6.98528Z" fill="black"/>
    <path d="M12.0874 6.84473C9.24487 6.84473 6.93207 9.15734 6.93207 12.0001C6.93207 14.8426 9.24487 17.1554 12.0874 17.1554C14.9301 17.1554 17.2427 14.8426 17.2427 12.0001C17.2427 9.15734 14.9301 6.84473 12.0874 6.84473Z" fill="black"/>
    <path d="M18.8066 4.51416C18.5133 4.51416 18.2745 4.75293 18.2745 5.04626C18.2745 5.3396 18.5133 5.57837 18.8066 5.57837C19.1001 5.57837 19.3389 5.33978 19.3389 5.04626C19.3389 4.75275 19.1001 4.51416 18.8066 4.51416Z" fill="black"/>
  </g>
  <defs>
    <clipPath id="clip0_320_223">
      <rect width="24" height="24" fill="white" transform="translate(0.0874023)"/>
    </clipPath>
  </defs>
</svg>

<svg xmlns="http://www.w3.org/2000/svg" width="25" height="24" fill="none" xmlns:v="https://vecta.io/nano"><g clip-path="url(#A)" fill="#000"><path d="M17.591 0H6.584C3.002 0 .087 2.914.087 6.497v11.007C.087 21.086 3.002 24 6.584 24h11.007c3.582 0 6.496-2.914 6.496-6.496V6.497C24.087 2.914 21.173 0 17.591 0h0zm-5.503 18.562A6.57 6.57 0 0 1 5.525 12a6.57 6.57 0 0 1 6.562-6.562A6.57 6.57 0 0 1 18.65 12a6.57 6.57 0 0 1-6.562 6.562zm6.719-11.577a1.94 1.94 0 0 1-1.939-1.939 1.94 1.94 0 0 1 1.939-1.939 1.94 1.94 0 0 1 1.939 1.939 1.94 1.94 0 0 1-1.939 1.939zm-6.72-.14c-2.843 0-5.155 2.313-5.155 5.155s2.313 5.155 5.155 5.155 5.155-2.313 5.155-5.155-2.313-5.155-5.155-5.155zm6.72-2.331c-.293 0-.532.239-.532.532s.239.532.532.532.532-.239.532-.532-.239-.532-.532-.532z"/></g><defs><clipPath id="A"><path fill="#fff" transform="translate(.087)" d="M0 0h24v24H0z"/></clipPath></defs></svg>
